X: 43239
T: Wizard's Walk, The
R: reel
M: 4/4
K: Eminor
e2 dc BAGF|GAFG E2 B2|e2 ef gfef|gafg e4|
a2 gf edcB|cdBc A2E2|A2 AB cBAB|cdBc A4:|
BBfB BfBB|gccg ccg"o"c|BBfB BfBB|gccg ccgc|
fBBB gcc"o"c|fBBB gccc|fB^cc ^dde"o"e|ffgg aab"o"b|
egbe bgeg|^dfbf bfdf|=dfab afdB|^ceae aec"o"A|
=cege cege|Bege Beg"o"e|_Bege Bege|=Bege fe^de|
BBfB BfBB|gccg ccg"o"c|BBfB BfBB|gccg ccgc|
fBBB gcc"o"c|fBBB gcc"o"c|fB^cc ^dd ez|ff gz az bz|
egbe bgeg|^dfbf bfdf|=dfab afdB|^ceae aec"o"A|
=cege cege|Bege Beg"o"e|_Bege Bege|=Bege fe^de|
egbe bgeg|^dfbf bfdf|=dfab afdB|^ceae aec"o"A|
=cege cege|Bege Beg"o"e|_Bege Bege|=Bege fe^d2-|d1d/e5E/||

